public/assets/img/icons/paper-airplane.svg

<svg width="18" height="18" viewBox="0 0 18 18" fill="none" xmlns="http://www.w3.org/2000/svg">
<path d="M17.9966 0.339721C17.9939 0.318978 17.9908 0.299018 17.9845 0.278666C17.9778 0.256357 17.9688 0.236006 17.9587 0.215262C17.9532 0.203912 17.9512 0.19178 17.9446 0.180821C17.9403 0.173776 17.9332 0.169079 17.9281 0.162426C17.9152 0.144422 17.9 0.128767 17.8839 0.112721C17.8679 0.096674 17.8518 0.0818016 17.8334 0.068886C17.8268 0.0641895 17.8225 0.057536 17.8158 0.0536222C17.8049 0.0469687 17.7927 0.0454032 17.7814 0.0399239C17.7598 0.0293566 17.7387 0.0203548 17.716 0.0137014C17.6968 0.00861342 17.678 0.00587375 17.6585 0.00352547C17.6354 0.000785805 17.6131 -0.000779718 17.59 0.000394424C17.5685 0.00156857 17.5477 0.00587375 17.5266 0.0109617C17.5133 0.0140927 17.4996 0.0129186 17.4863 0.0176152L0.265524 5.88832C0.109755 5.94077 0.00369066 6.08597 0.000559614 6.25074C-0.00257143 6.41551 0.097622 6.56463 0.251826 6.62373L8.29744 9.71524L11.7741 17.7636C11.8363 17.9072 11.978 17.9996 12.1334 17.9996C12.14 17.9996 12.1463 17.9996 12.1529 17.9992C12.3161 17.991 12.4566 17.8826 12.5063 17.7272L17.9857 0.50645C17.9896 0.494317 17.9884 0.481793 17.9908 0.469268C17.9955 0.447351 17.999 0.426216 17.9998 0.403908C18.0005 0.38199 17.9994 0.361247 17.9966 0.339721ZM1.54025 6.2801L16.1454 1.30095L8.4943 8.95205L1.54025 6.2801ZM12.0774 16.4924L9.05593 9.49764L16.7516 1.80153L12.0774 16.4924Z" fill="#333333"/>
<path d="M6.14751 11.8521C5.99448 11.699 5.74713 11.699 5.5941 11.8521L0.114772 17.3314C-0.0382575 17.4844 -0.0382575 17.7318 0.114772 17.8848C0.191092 17.9611 0.291285 17.9995 0.391478 17.9995C0.491672 17.9995 0.591865 17.9611 0.668185 17.8848L6.14751 12.4055C6.30054 12.2525 6.30054 12.0051 6.14751 11.8521Z" fill="#333333"/>
<path d="M7.15961 14.5921L4.41995 17.3317C4.26692 17.4848 4.26692 17.7321 4.41995 17.8851C4.49627 17.9615 4.59646 17.9998 4.69665 17.9998C4.79685 17.9998 4.89704 17.9615 4.97336 17.8851L7.71302 15.1455C7.86605 14.9924 7.86605 14.7451 7.71302 14.5921C7.55999 14.439 7.31264 14.439 7.15961 14.5921Z" fill="#333333"/>
<path d="M0.391478 13.6944C0.491672 13.6944 0.591865 13.656 0.668185 13.5797L3.40785 10.8401C3.56088 10.687 3.56088 10.4397 3.40785 10.2866C3.25482 10.1336 3.00747 10.1336 2.85444 10.2866L0.114772 13.0263C-0.0382575 13.1793 -0.0382575 13.4267 0.114772 13.5797C0.191092 13.656 0.291285 13.6944 0.391478 13.6944Z" fill="#333333"/>
</svg>

<svg width="18" height="18" fill="none" xmlns="http://www.w3.org/2000/svg"><path d="M17.997.34a.359.359 0 0 0-.038-.125c-.006-.011-.008-.023-.014-.034l-.017-.019a.4.4 0 0 0-.044-.05.38.38 0 0 0-.05-.043c-.007-.005-.011-.011-.018-.015-.011-.007-.023-.009-.035-.014a.41.41 0 0 0-.065-.026.414.414 0 0 0-.19-.003c-.013.003-.026.002-.04.007L.266 5.888a.39.39 0 0 0-.014.736l8.045 3.091 3.477 8.049a.392.392 0 0 0 .36.236h.019a.391.391 0 0 0 .353-.273l5.48-17.22c.004-.013.002-.025.005-.038a.371.371 0 0 0 .006-.13zM1.54 6.28l14.605-4.979-7.65 7.651L1.54 6.28zm10.537 10.212L9.056 9.498l7.696-7.696-4.675 14.69z" fill="#333"/><path d="M6.148 11.852a.39.39 0 0 0-.554 0l-5.48 5.48a.39.39 0 1 0 .554.553l5.48-5.48a.39.39 0 0 0 0-.553zM7.16 14.592l-2.74 2.74a.39.39 0 1 0 .553.553l2.74-2.74a.39.39 0 1 0-.553-.553zM.391 13.694c.1 0 .2-.038.277-.114l2.74-2.74a.391.391 0 1 0-.554-.553l-2.74 2.74a.39.39 0 0 0 .277.667z" fill="#333"/></svg>
